images_breeze_svg/cmd/32/photoalbumdialog.svg

<svg viewBox="0 0 32 32" xmlns="http://www.w3.org/2000/svg"><path d="m4 4v21h3v3h21v-5-16h-3v-3zm1 1h19v2h-17v17h-2zm3 3h19v14l-4-5-5 5-2-2-8 7zm5 2c-1.656854 0-3 1.343146-3 3s1.343146 3 3 3 3-1.343146 3-3-1.343146-3-3-3z" fill="#4d4d4d"/></svg>

<?xml version="1.0" encoding="UTF-8" standalone="no"?>
<svg
   xmlns:dc="http://purl.org/dc/elements/1.1/"
   xmlns:cc="http://creativecommons.org/ns#"
   xmlns:rdf="http://www.w3.org/1999/02/22-rdf-syntax-ns#"
   xmlns:svg="http://www.w3.org/2000/svg"
   xmlns="http://www.w3.org/2000/svg"
   xmlns:sodipodi="http://sodipodi.sourceforge.net/DTD/sodipodi-0.dtd"
   xmlns:inkscape="http://www.inkscape.org/namespaces/inkscape"
   viewBox="0 0 32 32"
   version="1.1"
   id="svg6"
   sodipodi:docname="photoalbumdialog.svg"
   inkscape:version="0.92.4 (unknown)"
   inkscape:export-filename="/home/rizmut/Dokumen/Rizmut/Github/tmp/breeze/cmd/32/photoalbumdialog.png"
   inkscape:export-xdpi="96"
   inkscape:export-ydpi="96">
  <metadata
     id="metadata12">
    <rdf:RDF>
      <cc:Work
         rdf:about="">
        <dc:format>image/svg+xml</dc:format>
        <dc:type
           rdf:resource="http://purl.org/dc/dcmitype/StillImage" />
        <dc:title></dc:title>
      </cc:Work>
    </rdf:RDF>
  </metadata>
  <defs
     id="defs10" />
  <sodipodi:namedview
     pagecolor="#ffffff"
     bordercolor="#666666"
     borderopacity="1"
     objecttolerance="10"
     gridtolerance="10"
     guidetolerance="10"
     inkscape:pageopacity="0"
     inkscape:pageshadow="2"
     inkscape:window-width="1360"
     inkscape:window-height="714"
     id="namedview8"
     showgrid="true"
     inkscape:zoom="10.429825"
     inkscape:cx="17.825219"
     inkscape:cy="10.515011"
     inkscape:window-x="0"
     inkscape:window-y="28"
     inkscape:window-maximized="1"
     inkscape:current-layer="svg6">
    <inkscape:grid
       type="xygrid"
       id="grid822" />
  </sodipodi:namedview>
  <path
     style="fill:#4d4d4d"
     d="M 4 4 L 4 25 L 7 25 L 7 28 L 28 28 L 28 23 L 28 7 L 25 7 L 25 4 L 4 4 z M 5 5 L 24 5 L 24 7 L 7 7 L 7 24 L 5 24 L 5 5 z M 8 8 L 27 8 L 27 22 L 23 17 L 18 22 L 16 20 L 8 27 L 8 8 z M 13 10 C 11.343146 10 10 11.343146 10 13 C 10 14.656854 11.343146 16 13 16 C 14.656854 16 16 14.656854 16 13 C 16 11.343146 14.656854 10 13 10 z "
     id="path2" />
</svg>
